antfarmsite/img/logo.svg

<?xml version="1.0" encoding="UTF-8" standalone="no"?>
<svg
   xmlns:dc="http://purl.org/dc/elements/1.1/"
   xmlns:cc="http://web.resource.org/cc/"
   xmlns:rdf="http://www.w3.org/1999/02/22-rdf-syntax-ns#"
   xmlns:svg="http://www.w3.org/2000/svg"
   xmlns="http://www.w3.org/2000/svg"
   xmlns:xlink="http://www.w3.org/1999/xlink"
   xmlns:sodipodi="http://sodipodi.sourceforge.net/DTD/sodipodi-0.dtd"
   xmlns:inkscape="http://www.inkscape.org/namespaces/inkscape"
   version="1.0"
   width="128"
   height="128"
   id="ant"
   sodipodi:version="0.32"
   inkscape:version="0.44+devel"
   sodipodi:docname="Andy_-_ant.svg"
   inkscape:output_extension="org.inkscape.output.svg.inkscape"
   sodipodi:docbase="/home/rejon/Documents/projects/openclipartlibrary/art"
   sodipodi:modified="true">
  <sodipodi:namedview
     inkscape:window-height="577"
     inkscape:window-width="852"
     inkscape:pageshadow="2"
     inkscape:pageopacity="0.0"
     guidetolerance="10.0"
     gridtolerance="10.0"
     objecttolerance="10.0"
     borderopacity="1.0"
     bordercolor="#666666"
     pagecolor="#ffffff"
     id="base"
     inkscape:zoom="2.9609375"
     inkscape:cx="64"
     inkscape:cy="63.358311"
     inkscape:window-x="424"
     inkscape:window-y="382"
     inkscape:current-layer="ant" />
  <metadata
     id="metadata3">
    <rdf:RDF>
      <cc:Work
         rdf:about="ant">
        <dc:format>image/svg+xml</dc:format>
        <dc:type
           rdf:resource="http://purl.org/dc/dcmitype/StillImage" />
        <dc:title>ant</dc:title>
        <dc:creator>
          <cc:Agent>
            <dc:title>Andy Fitzsimon</dc:title>
          </cc:Agent>
        </dc:creator>
        <dc:source>andy.brisgeek.com</dc:source>
        <dc:subject>
          <rdf:Bag>
            <rdf:li>ant</rdf:li>
            <rdf:li>logo</rdf:li>
            <rdf:li>shiny</rdf:li>
            <rdf:li>insect</rdf:li>
            <rdf:li>glossy</rdf:li>
          </rdf:Bag>
        </dc:subject>
        <cc:license
           rdf:resource="http://creativecommons.org/licenses/by-sa/2.5/" />
        <dc:date>2006-08-30</dc:date>
        <dc:contributor>
          <cc:Agent>
            <dc:title>Andy Fitzsimon</dc:title>
          </cc:Agent>
        </dc:contributor>
        <dc:description>Balanced ant design with specularity.</dc:description>
      </cc:Work>
      <cc:License
         rdf:about="http://creativecommons.org/licenses/by-sa/2.5/">
        <cc:permits
           rdf:resource="http://web.resource.org/cc/Reproduction" />
        <cc:permits
           rdf:resource="http://web.resource.org/cc/Distribution" />
        <cc:requires
           rdf:resource="http://web.resource.org/cc/Notice" />
        <cc:requires
           rdf:resource="http://web.resource.org/cc/Attribution" />
        <cc:permits
           rdf:resource="http://web.resource.org/cc/DerivativeWorks" />
        <cc:requires
           rdf:resource="http://web.resource.org/cc/ShareAlike" />
      </cc:License>
    </rdf:RDF>
  </metadata>
  <defs
     id="defs5">
    <linearGradient
       id="WhiteTransparent">
      <stop
         style="stop-color:white;stop-opacity:1"
         offset="0"
         id="stop8" />
      <stop
         style="stop-color:white;stop-opacity:0"
         offset="1"
         id="stop10" />
    </linearGradient>
    <linearGradient
       xlink:href="#WhiteTransparent"
       id="linearGradient3153"
       gradientUnits="userSpaceOnUse"
       gradientTransform="matrix(0.633768,2.365244,-2.365244,0.633768,761.1766,-1845.476)"
       x1="682.04"
       y1="471.38"
       x2="680.06"
       y2="472.52" />
    <linearGradient
       xlink:href="#WhiteTransparent"
       id="linearGradient3156"
       gradientUnits="userSpaceOnUse"
       gradientTransform="matrix(-2.365244,-0.633768,-0.633768,2.365244,1975.966,-632.1011)"
       x1="681.72"
       y1="471.57"
       x2="676.89"
       y2="474.35" />
    <linearGradient
       inkscape:collect="always"
       xlink:href="#WhiteTransparent"
       id="linearGradient2563"
       gradientUnits="userSpaceOnUse"
       gradientTransform="matrix(2.120622,1.224339,-1.224339,2.120622,-793.7969,-1778.614)"
       x1="682.04"
       y1="471.38"
       x2="680.06"
       y2="472.52" />
    <linearGradient
       inkscape:collect="always"
       xlink:href="#WhiteTransparent"
       id="linearGradient2566"
       gradientUnits="userSpaceOnUse"
       gradientTransform="matrix(-2.120622,1.224339,1.224339,2.120622,923.1751,-1779.614)"
       x1="681.72"
       y1="471.57"
       x2="676.89"
       y2="474.35" />
  </defs>
  <path
     d="M 17.176607,23.930791 C 16.151302,24.772248 24.403241,35.216218 24.912358,35.82433 C 31.962215,44.260117 38.941361,44.550031 39.804031,45.808681 C 40.673773,47.060261 44.831562,51.246334 52.227901,52.4767 C 52.256185,54.400031 52.362251,56.217296 52.560241,57.942637 C 48.013543,56.691058 42.894089,55.616255 40.030305,55.623326 C 37.010958,55.616255 26.786191,58.472968 24.954784,59.328567 C 24.311317,59.632623 12.629909,59.335638 12.629909,60.608431 C 12.629909,61.895366 24.261819,62.369127 24.742652,61.718589 C 28.964081,62.39034 40.92126,60.20538 42.194053,60.431654 C 43.466845,60.67207 53.260277,63.521712 53.330988,63.535854 C 54.066379,66.915825 55.134111,68.761375 56.399832,71.017046 C 51.534936,70.875624 42.802165,75.691023 37.930198,80.56299 C 33.885546,84.607642 27.146816,91.148382 26.128582,92.59088 C 22.324346,97.964894 24.028474,114.77283 26.135653,114.77283 C 27.790283,114.77283 23.830484,99.72559 27.63472,94.351577 C 28.730736,92.803013 40.9849,84.437937 42.413256,82.797448 C 43.841612,81.15696 51.435941,78.809365 54.617923,76.433485 C 51.414728,78.505309 49.222696,81.743859 49.222696,86.198633 C 49.222696,102.74494 57.856473,109.41296 64.340644,109.49074 C 64.340644,109.49074 64.347715,109.51195 64.361857,109.51195 C 64.375999,109.51195 64.390142,109.51195 64.404284,109.51195 C 64.418426,109.51195 64.432568,109.51195 64.44671,109.51195 C 64.460852,109.51195 64.474994,109.51195 64.489137,109.51195 C 70.966237,109.4271 79.557587,102.74494 79.557587,86.226917 C 79.564658,82.076199 77.648398,78.957857 74.805828,76.878963 C 78.263581,79.092208 85.044737,81.263026 86.38824,82.80452 C 87.823668,84.437937 100.02126,92.803013 101.12435,94.358648 C 104.93566,99.72559 100.98293,114.79404 102.6517,114.79404 C 104.74474,114.79404 106.45594,97.979036 102.6517,92.605023 C 101.6264,91.169595 94.894738,84.635927 90.850085,80.591275 C 85.971047,75.712236 77.252418,70.896838 72.380451,71.04533 C 73.646172,68.789659 74.706833,66.894612 75.449295,63.50757 C 75.512935,63.500498 85.306367,60.693284 86.58623,60.459938 C 87.866094,60.226593 99.816202,62.418625 104.0447,61.739802 C 104.51846,62.397412 116.15744,61.916579 116.15037,60.636715 C 116.15744,59.356851 104.44068,59.632623 103.79721,59.328567 C 101.97288,58.465897 91.797609,55.616255 88.771191,55.616255 C 85.907408,55.623326 80.745526,56.698129 76.198828,57.935566 C 76.396818,56.224367 76.545311,54.407102 76.573595,52.483771 C 83.969934,51.239263 88.134795,47.060261 88.990394,45.808681 C 89.860136,44.557102 96.839282,44.267188 103.88914,35.817259 C 104.39118,35.216218 112.65019,24.765177 111.61782,23.930791 C 110.40867,22.947912 102.84262,32.691846 102.53856,33.547446 C 100.48795,34.56568 90.744019,41.056922 89.570222,41.523613 C 88.389353,41.983232 82.449654,44.104553 76.135189,47.887576 C 75.166452,44.189406 72.726933,41.679176 69.742942,40.349815 C 73.865375,40.342744 76.863509,39.536642 76.863509,34.997015 C 76.863509,30.033124 75.908915,25.458142 74.303782,21.788256 C 78.694916,19.504301 81.876898,17.057711 82.831492,16.711228 C 83.786087,16.350604 84.153782,15.035385 82.343588,11.711982 C 79.359597,6.2531157 76.128118,1.5225699 75.428082,1.7841995 C 74.728046,2.0599712 77.99488,12.69486 80.795024,14.985887 C 77.478692,15.572786 75.300803,16.647589 72.536014,18.563849 C 70.358125,15.26873 67.557981,13.28883 64.467923,13.239333 C 64.460852,13.232262 64.453781,13.211049 64.44671,13.21812 C 64.418426,13.21812 64.38307,13.211049 64.354786,13.211049 C 61.257658,13.253475 58.400945,15.261659 56.230127,18.563849 C 53.458267,16.65466 51.29452,15.551573 47.985259,14.957603 C 50.785403,12.680718 54.07345,2.0529001 53.373414,1.7912705 C 52.673379,1.5296409 49.420686,6.2248314 46.436695,11.683697 C 44.61943,15.014171 45.01541,16.357675 45.970004,16.704157 C 46.93167,17.057711 50.113651,19.504301 54.504786,21.788256 C 52.892582,25.451071 51.937987,30.040195 51.937987,35.004086 C 51.937987,39.529571 54.936121,40.349815 59.051484,40.349815 C 56.074563,41.686247 53.635044,44.196477 52.666307,47.880505 C 46.351842,44.097482 40.383859,42.004446 39.210061,41.537755 C 38.029193,41.078135 28.292329,34.537396 26.241719,33.519162 C 25.944734,32.670633 18.392831,22.940841 17.176607,23.930791 z "
     style="fill:#ffffff"
     id="ant-shape" />
</svg>

<svg xmlns="http://www.w3.org/2000/svg" version="1.0" width="128" height="128"><path d="M17.177 23.93c-1.026.842 7.226 11.286 7.735 11.894 7.05 8.436 14.03 8.726 14.892 9.985.87 1.251 5.028 5.437 12.424 6.668.028 1.923.134 3.74.332 5.466-4.546-1.252-9.666-2.327-12.53-2.32-3.019-.007-13.244 2.85-15.075 3.706-.644.304-12.325.007-12.325 1.28 0 1.286 11.632 1.76 12.113 1.11 4.221.671 16.178-1.514 17.451-1.287 1.273.24 11.066 3.09 11.137 3.104.735 3.38 1.803 5.225 3.069 7.481-4.865-.141-13.598 4.674-18.47 9.546-4.044 4.045-10.783 10.585-11.801 12.028-3.805 5.374-2.1 22.182.007 22.182 1.654 0-2.306-15.047 1.499-20.421 1.096-1.549 13.35-9.914 14.778-11.555 1.429-1.64 9.023-3.988 12.205-6.364-3.203 2.072-5.395 5.31-5.395 9.766 0 16.546 8.633 23.214 15.118 23.292 0 0 .007.02.02.02l.043.001h.086c6.477-.085 15.069-6.767 15.069-23.285.007-4.15-1.91-7.27-4.752-9.348 3.458 2.213 10.239 4.384 11.582 5.926 1.436 1.633 13.633 9.998 14.736 11.554 3.812 5.367-.141 20.435 1.528 20.435 2.093 0 3.804-16.815 0-22.189-1.026-1.435-7.757-7.97-11.802-12.014-4.879-4.879-13.598-9.694-18.47-9.546 1.266-2.255 2.327-4.15 3.07-7.537.063-.008 9.856-2.815 11.136-3.048 1.28-.233 13.23 1.959 17.459 1.28.473.657 12.112.177 12.105-1.103.007-1.28-11.71-1.004-12.353-1.308-1.824-.863-12-3.713-15.026-3.713-2.864.007-8.025 1.082-12.572 2.32.198-1.712.346-3.529.375-5.452 7.396-1.245 11.56-5.424 12.416-6.675.87-1.252 7.85-1.542 14.9-9.992.501-.6 8.76-11.052 7.728-11.886-1.21-.983-8.775 8.76-9.08 9.616-2.05 1.019-11.794 7.51-12.968 7.977-1.18.46-7.12 2.58-13.435 6.364-.969-3.699-3.408-6.209-6.392-7.538 4.122-.007 7.12-.813 7.12-5.353 0-4.964-.954-9.539-2.56-13.209 4.392-2.284 7.574-4.73 8.528-5.077.955-.36 1.323-1.676-.487-4.999-2.984-5.459-6.216-10.19-6.916-9.928-.7.276 2.567 10.91 5.367 13.202-3.316.587-5.494 1.662-8.259 3.578-2.178-3.295-4.978-5.275-8.068-5.325-.007-.007-.014-.028-.021-.02-.029 0-.064-.008-.092-.008-3.097.042-5.954 2.05-8.125 5.353-2.772-1.91-4.935-3.012-8.245-3.606 2.8-2.277 6.088-12.905 5.388-13.167-.7-.261-3.952 4.434-6.936 9.893-1.818 3.33-1.422 4.674-.467 5.02.962.354 4.144 2.8 8.535 5.084-1.612 3.663-2.567 8.252-2.567 13.216 0 4.526 2.998 5.346 7.113 5.346-2.976 1.336-5.416 3.846-6.385 7.53-6.314-3.783-12.282-5.876-13.456-6.342-1.18-.46-10.918-7-12.968-8.019-.297-.848-7.85-10.578-9.065-9.588z" fill="#fff"/></svg>
